X:1
T:Minority
Z:Gigi Gryce/and the jazz lab quintet
Z:Bill Evans/Everybody digs Bill Evans
M:4/4
L:1/8
C:Gigi Gryce
Q:1/4=250
%%staves (chords melody lo_voice)
K:Fm
%%text (medium/up)
%%vskip 20
% A %%%%%%%%%%%%%%%%%%%%%%%%%%%%%%%%%%%%
P:A
V:chords
"Fm6"x4 x4 | x4 x4 | "Gm7"x4 x4 | "C7"x4 x4 |
"Fm6"x4 x4 | x4 x4 | "Cm7"x4 x4 | "F7"x4 x4 ||
V:melody
G4- G3F | z4 =DEFG | =A4 A3G | =Ac2A- A2z2 |
G4-G3F | z4 FGBc | =d4 d3c | =df2d- d2z2 ||
V:lo_voice
=E4- E3D | x8 | F4=E4 | F3=E- E2x2 |
=E4- E3D | x8 | B4=A4 | B3=A- A2x2 ||
% B %%%%%%%%%%%%%%%%%%%%%%%%%%%%%%%%%%%%
P:B
V:chords
"Bbm7"x4 x4 | "Eb7"x4 x4 | "Abm7"x4 x4 | "Db7"x4 x4 |
"F#m7"x4 x4 | "B7"x4 x4 | "Gm7"x4 x4 | "C7"x4 x4 :|
V:melody
c2z2 c3B | c_e2c- c2z2 | zBz2 B3_A | B_d2B- B2z2 |
_A4A3A | z4 F_G2_A | =A4A3A | z8 :|
V:lo_voice
_A2x2 G4 | A3G- G2x2 | x_Gx2 F4 | _G3F- F2x2 |
F4=E3_E | x4 DE2F | ^F4=F3=E | x8 :|
